X:0939
T:Morag.
M:C
L:1/8
Q:1/4=80
I: || ||
Z:Jack Campin * www.campin.me.uk * 2009
K:E Minor
B|e>fg>e f2B>B|e>gf>e  d>cB>B   |e>fg>a f2 Hg>e|dB`AG  g2ga|b>gf>d efg||
g|e>dB>A G2A>B|c>AB>AG E2Hgg/>e/|ed`BA  G2  A>B|c>AB>G E2 E|]

